packages/icons/web/maestro_large.svg

<svg width="24" height="24" viewBox="0 0 24 24" fill="none" xmlns="http://www.w3.org/2000/svg">
<path d="M8.05102 20.2998V19.2807C8.06305 19.1079 7.9994 18.9383 7.87626 18.8151C7.75312 18.6919 7.58238 18.627 7.40751 18.6369C7.17614 18.6219 6.95487 18.7327 6.83021 18.9261C6.71655 18.7384 6.50809 18.6275 6.28713 18.6369C6.09529 18.6278 5.91283 18.7196 5.80729 18.8783V18.6781H5.4502V20.2998H5.81026V19.4014C5.79423 19.2889 5.83007 19.1753 5.9079 19.0917C5.98573 19.0082 6.09734 18.9636 6.21199 18.9702C6.44931 18.9702 6.56908 19.1225 6.56908 19.3977V20.2998H6.9299V19.4014C6.91525 19.2892 6.95157 19.1763 7.02908 19.0932C7.1066 19.01 7.21736 18.965 7.33163 18.9702C7.57564 18.9702 7.69244 19.1225 7.69244 19.3977V20.2998H8.05102ZM10.0597 19.4897V18.6803H9.69885V18.8768C9.57608 18.7201 9.38437 18.6316 9.18404 18.6391C8.71994 18.6527 8.3508 19.0287 8.3508 19.4879C8.3508 19.9471 8.71994 20.323 9.18404 20.3366C9.38491 20.3439 9.5761 20.2556 9.69885 20.0989V20.2961H10.0559L10.0597 19.4897ZM8.73247 19.4897C8.74826 19.2232 8.97647 19.0181 9.24616 19.028C9.51585 19.0378 9.72813 19.2591 9.72398 19.5259C9.71983 19.7928 9.50078 20.0075 9.23091 20.0091C9.09261 20.0126 8.95926 19.9582 8.86365 19.8593C8.76805 19.7604 8.71906 19.6262 8.72875 19.4897H8.73247ZM17.6895 18.6406C17.8063 18.6406 17.9231 18.6627 18.0318 18.7054C18.2422 18.7867 18.4101 18.9493 18.4967 19.1557C18.5875 19.3727 18.5875 19.6162 18.4975 19.834C18.411 20.0405 18.243 20.2031 18.0325 20.2843C17.8061 20.3713 17.5551 20.3713 17.3287 20.2843C17.1201 20.2015 16.9539 20.0393 16.8675 19.834C16.7777 19.6164 16.7774 19.3727 16.8667 19.1549C16.9533 18.95 17.1195 18.788 17.328 18.7054C17.4418 18.659 17.5631 18.6347 17.6851 18.6355L17.6888 18.6406H17.6895ZM17.6895 18.9805C17.6196 18.9794 17.55 18.9919 17.485 19.0173C17.3591 19.0676 17.2605 19.1681 17.2134 19.294C17.1608 19.4297 17.1608 19.5799 17.2134 19.7156C17.2604 19.8416 17.359 19.9421 17.485 19.9922C17.6825 20.0681 17.9064 20.0268 18.063 19.8855C18.1106 19.8369 18.1476 19.779 18.1716 19.7156C18.2242 19.5799 18.2242 19.4297 18.1716 19.294C18.1475 19.2308 18.1105 19.1732 18.063 19.1248C18.0141 19.0776 17.9559 19.041 17.8919 19.0173C17.8271 18.9882 17.757 18.9721 17.6858 18.9702L17.6888 18.9805H17.6895ZM11.9999 19.4897C11.9999 18.9805 11.68 18.6406 11.2217 18.6406C10.915 18.645 10.6339 18.8108 10.4843 19.0757C10.3348 19.3405 10.3395 19.6642 10.4966 19.9247C10.6538 20.1853 10.9395 20.3431 11.2463 20.3388C11.4903 20.3461 11.7298 20.2652 11.9173 20.1107L11.7462 19.8495C11.6104 19.9569 11.4424 20.0164 11.2686 20.0187C11.0232 20.0394 10.8057 19.8634 10.7776 19.6214H11.9947C11.9999 19.5795 11.9999 19.5368 11.9999 19.489V19.4897ZM10.7791 19.347C10.793 19.1228 10.9835 18.9496 11.2105 18.9548C11.435 18.9503 11.6208 19.1264 11.6257 19.3484L10.7791 19.347ZM13.5019 19.0924C13.3452 19.003 13.168 18.9548 12.9871 18.9526C12.7907 18.9526 12.6746 19.0247 12.6746 19.1439C12.6746 19.2616 12.7981 19.2822 12.9521 19.3028L13.124 19.3264C13.4811 19.3779 13.6968 19.5272 13.6968 19.812C13.6968 20.0974 13.423 20.3417 12.9506 20.3417C12.6976 20.3484 12.4491 20.2746 12.2416 20.1313L12.4128 19.8561C12.5712 19.9716 12.7632 20.032 12.9596 20.0261C13.2028 20.0261 13.3338 19.9547 13.3338 19.8289C13.3338 19.7376 13.2408 19.6869 13.0451 19.6597L12.874 19.6354C12.5057 19.5846 12.3071 19.422 12.3071 19.1571C12.3071 18.8341 12.5749 18.6369 12.9938 18.6369C13.2281 18.6296 13.4595 18.6884 13.6611 18.8069L13.5019 19.0924ZM15.2189 19.0004H14.6364V19.7325C14.6364 19.9017 14.6952 20.0047 14.8737 20.0047C14.9851 20.0007 15.0936 19.9688 15.1891 19.912L15.2926 20.2144C15.1586 20.2976 15.0039 20.341 14.8462 20.3402C14.4236 20.3402 14.2763 20.1158 14.2763 19.7391V19.0011H13.943V18.6789H14.2763V18.1859H14.6364V18.6789H15.2189V19.0011V19.0004ZM16.4531 18.6369C16.5394 18.6369 16.6257 18.6524 16.7068 18.6811L16.5974 19.021C16.5265 18.9931 16.4506 18.9794 16.3742 18.9805C16.1407 18.9805 16.0305 19.1299 16.0305 19.3977V20.3064H15.6735V18.6848H16.0268V18.8819C16.1161 18.7301 16.2823 18.6389 16.4598 18.6443L16.4524 18.6369H16.4531ZM18.9215 20.0636C18.9656 20.063 19.0083 20.0794 19.0405 20.1092C19.0797 20.1467 19.0969 20.2014 19.086 20.2543C19.0752 20.3072 19.0379 20.3509 18.987 20.3704C18.9664 20.3795 18.9441 20.3843 18.9215 20.3844C18.8552 20.3838 18.7952 20.3454 18.7675 20.2858C18.7415 20.2253 18.7557 20.1552 18.8032 20.1092C18.8332 20.0814 18.8723 20.0652 18.9133 20.0636H18.9215ZM18.9215 20.3505C18.9551 20.351 18.9874 20.3377 19.0108 20.3138C19.0479 20.2781 19.0594 20.2238 19.0397 20.1764C19.02 20.1291 18.9732 20.0984 18.9215 20.0989C18.8874 20.099 18.8548 20.1125 18.8307 20.1364C18.7863 20.1843 18.7863 20.2578 18.8307 20.3057C18.8545 20.33 18.8873 20.3438 18.9215 20.3439V20.3505ZM18.9319 20.1482C18.948 20.1475 18.9638 20.1525 18.9766 20.1622C18.987 20.171 18.9929 20.1843 18.9914 20.1975C18.9929 20.2093 18.9885 20.2196 18.9803 20.2284C18.9702 20.2373 18.9573 20.2424 18.9438 20.2431L18.9937 20.2998H18.9542L18.9081 20.2431H18.8925V20.2998H18.8598V20.1431L18.9319 20.1482ZM18.8947 20.1776V20.2181H18.9319C18.9387 20.2201 18.946 20.2201 18.9528 20.2181C18.955 20.2135 18.955 20.208 18.9528 20.2034C18.9555 20.1983 18.9555 20.1922 18.9528 20.1872C18.946 20.1852 18.9387 20.1852 18.9319 20.1872L18.8947 20.1769V20.1776Z" fill="black"/>
<path d="M9.2959 6.30908H14.7044V15.9182H9.2959V6.30908Z" fill="#7673C0"/>
<path d="M9.63939 11.1137C9.63739 9.23779 10.5079 7.4652 11.9999 6.30694C9.46583 4.33717 5.82667 4.624 3.64 6.96584C1.45333 9.30768 1.45333 12.9183 3.64 15.2601C5.82667 17.6019 9.46583 17.8888 11.9999 15.919C10.5083 14.7611 9.63785 12.9891 9.63939 11.1137Z" fill="#EB001B"/>
<path d="M21.9986 11.1137C21.9976 13.4532 20.6466 15.5869 18.5189 16.6093C16.3913 17.6317 13.8602 17.3634 12 15.9182C13.4906 14.7593 14.361 12.9878 14.361 11.1126C14.361 9.23731 13.4906 7.46582 12 6.30689C13.8602 4.86084 16.3919 4.59199 18.5201 5.6145C20.6483 6.637 21.9996 8.77141 22.0001 11.1115L21.9986 11.1137Z" fill="#00A1DF"/>
</svg>

<svg width="24" height="24" fill="none" xmlns="http://www.w3.org/2000/svg">
    <path d="M8.051 20.3v-1.02a.6.6 0 00-.175-.465.614.614 0 00-.468-.178.637.637 0 00-.578.29.604.604 0 00-.543-.29.545.545 0 00-.48.241v-.2H5.45V20.3h.36v-.9a.376.376 0 01.098-.31.385.385 0 01.304-.12c.237 0 .357.151.357.427v.902h.36V19.4a.38.38 0 01.1-.308.39.39 0 01.303-.123c.244 0 .36.152.36.428v.902h.359zm2.009-.81v-.81h-.361v.197a.624.624 0 00-.515-.238.854.854 0 00-.833.849c0 .46.369.835.833.849.2.007.392-.081.515-.238v.197h.357l.004-.806zm-1.328 0a.494.494 0 01.514-.462c.27.01.482.231.478.498a.494.494 0 01-.493.483.493.493 0 01-.367-.15.483.483 0 01-.135-.37h.003zm8.957-.85c.117 0 .234.023.343.065.21.082.378.244.465.45.09.218.09.461 0 .679a.825.825 0 01-.465.45.982.982 0 01-.703 0 .833.833 0 01-.462-.45.892.892 0 010-.68.833.833 0 01.461-.449.93.93 0 01.357-.07l.004.006zm0 .34a.54.54 0 00-.204.037.48.48 0 00-.272.277.583.583 0 000 .422.478.478 0 00.272.276.562.562 0 00.578-.107.492.492 0 00.109-.17.583.583 0 000-.421.492.492 0 00-.109-.17.493.493 0 00-.171-.107.538.538 0 00-.206-.047l.003.01zm-5.69.51c0-.51-.319-.85-.777-.85a.86.86 0 00-.738.436.841.841 0 00.013.849.86.86 0 00.75.414 1.01 1.01 0 00.67-.228l-.17-.262a.787.787 0 01-.478.17.454.454 0 01-.491-.398h1.217c.005-.041.005-.084.005-.132zm-1.22-.143a.42.42 0 01.431-.392.405.405 0 01.416.393l-.847-.001zm2.723-.255a1.065 1.065 0 00-.515-.14c-.196 0-.312.073-.312.192 0 .118.123.138.277.159l.172.023c.357.052.573.201.573.486s-.274.53-.746.53a1.193 1.193 0 01-.71-.21l.172-.276c.158.116.35.176.547.17.243 0 .374-.071.374-.197 0-.091-.093-.142-.289-.17l-.171-.024c-.368-.05-.567-.213-.567-.478 0-.323.268-.52.687-.52a1.24 1.24 0 01.667.17l-.16.285zM15.219 19h-.583v.733c0 .169.06.272.238.272a.664.664 0 00.315-.093l.104.302a.838.838 0 01-.447.126c-.422 0-.57-.224-.57-.6V19h-.333v-.322h.333v-.493h.36v.493h.583V19zm1.234-.363c.086 0 .173.015.254.044l-.11.34a.587.587 0 00-.223-.04c-.233 0-.343.149-.343.417v.908h-.357v-1.621h.353v.197a.485.485 0 01.433-.238l-.008-.007h.001zm2.469 1.427a.17.17 0 01.119.045.157.157 0 01-.054.261.164.164 0 01-.065.014.171.171 0 01-.155-.098.158.158 0 01.036-.177.172.172 0 01.11-.045h.009zm0 .287a.122.122 0 00.089-.037.124.124 0 00.029-.138.13.13 0 00-.209-.04.124.124 0 000 .17.128.128 0 00.09.038v.006zm.01-.203a.07.07 0 01.045.014.04.04 0 01.014.036.037.037 0 01-.01.03.06.06 0 01-.037.015l.05.057h-.04l-.046-.057h-.016v.057h-.032v-.157l.072.005zm-.037.03v.04h.037a.037.037 0 00.02 0 .017.017 0 000-.015.017.017 0 000-.016.037.037 0 00-.02 0l-.037-.01z" fill="#000"/>
    <path d="M9.296 6.31h5.408v9.608H9.296V6.31z" fill="#7673C0"/>
    <path d="M9.64 11.114A6.078 6.078 0 0112 6.307c-2.534-1.97-6.173-1.683-8.36.659a6.063 6.063 0 000 8.294c2.187 2.342 5.826 2.629 8.36.659a6.078 6.078 0 01-2.36-4.805z" fill="#EB001B"/>
    <path d="M21.999 11.114a6.107 6.107 0 01-3.48 5.495A6.237 6.237 0 0112 15.92a6.089 6.089 0 002.361-4.806c0-1.876-.87-3.647-2.361-4.806a6.237 6.237 0 016.52-.693A6.107 6.107 0 0122 11.111l-.001.003z" fill="#00A1DF"/>
</svg>
